!!!OTL: 600. Matrosenlied.
!!!COM: A. Polenz
!!!ODT: 1823
!!!ARE: Europa, Mitteleuropa, Deutschland
!!!SCT: B0600
!!!TXL: @@DE
!!!YEM: Copyright 1995, estate of Helmut Schaffrath.
**kern	**text
*ICvox	*
*Ivox	*
*clefG2	*
*M4/4	*
*met(c)	*
*k[]	*
*C:	*
!LO:TX:a:t=Kräftig.	!
{8g	Auf,
8g	Ma-
=1	=1
4cc	-tro-
8cc	-ſen,
8cc	den
4cc	An-
8b	-ker
8cc	ge-
=2	=2
4dd	-lich-
4g}	-tet,
{4g	Se-
8g	-gel
8g	geſpannt,
=3	=3
4g	.
8r	.
8g	den
4ff	Kom-
8ee	-paß
8dd	ge-
=4	=4
4ee	-rich-
4cc	-tet!
2r}	.
=5	=5
{2cc	Liebchen,
4b	.
4b	a-
=6	=6
2a	-de!
2r}	.
=7	=7
{2a	Scheiden
4b	.
4b	thut
=8	=8
2cc}	weh!
{8ddL	Mor-
8ccJ	.
8bL	-gen
8ccJ	da
=9	=9
4dd	geht's
8dd	in
8dd	die
8eeL	wo-
8ddJ	.
8cc	-gen-
8dd	-de
=10	=10
2ee}	See,
{8ddL	morgen
8ffJ	.
8ee	.
8dd	da
=11	=11
4cc	geht's
8cc	in
8cc	die
8ccL	wo-
8bJ	.
8a	-gen-
8b	-de
=12	=12
2cc	See.
4r}	.
==	==
!!!AGN: Staende -, Seemanns - Lied
!!!GTL: Seemanns-, Bergmanns-, Bauern- und Handwerkerlieder
!!!ONB: ESAC (Essen Associative Code) Database: BOEHME
!!!AMT: simple quadruple
!!!AIN: vox
!!!EED: Helmut Schaffrath
!!!EEV: 1.0
!!@@COMMENT:"Gedicht von Wilhelm Gerhard, 1817. Ʒuerſt in deſſen Maskenkalender, Leipʒig 1817.
!!Hier iſt der Text nach Volksmund, wie er ſchon 1823 geſungen wurde. Das Original in Gerbard'e
!!Gedichten. Leipʒig, Barth, 1826 J, S. 143."
!!@@END:
!!!Text: W. Gerhard
!!!URL-scan:
!!!ENC: Anna Maria Matuszewska
!!!EEV: 2024/15/07
*-	*-
